X:1
T:Title
%%score { 1 | ( 2 3 ) }
L:1/8
M:2/4
K:Ab
V:1 treble nm="Grand Piano"
V:2 bass 
V:3 bass 
V:1
 z2[Q:1/4=88] E2 | [CE][CE] [DF][DG] | [CA][DB] [Ec]>d | [Ec][DB] [DE]>B | [CA]3 [CE] | %5
 [CE][CE] [DF][DG] | [CA][DB] [Ec]>c | [GB][Ge] [Ge][F=d] | [Ge]4 | [CEe]2 [Ec]>[Ed] | [Ee]3 [Ec] | %11
 [CA][CA] [CA][DB] | [Ec]2 [CA]2 | [Ec]2 [CA]>[DB] | [Ec][Ec] [Ec]>[CA] | [DB]>[DB] [CA][B,G] | %16
[M:3/8] [CA]3 |[M:2/4] [Ee]2 [Ec]>[Ed] | [Ee]3 [Ec] | [CA][CA] [CA][DB] | [Ec]2 [CA]2 | %21
 [Ec]2 [CA]>[DB] | [Ec][Ec] [Ec]>[CA] | [DB]>[DB] [CA][B,G] |[M:3/8] [CA]3 |] %25
V:2
 z2 C2 | A,,E, A,E, | A,,E, .A,>F | E,,E, .G,>D | A,,E, A,E, | A,,E, A,E, | A,,E, .A,>E | %7
 B,,G, B,A, | E,G, .D2 | A,,2 [A,,A,]>[A,,B,] | [A,,C]3 [A,,A,] | [A,,E,][A,,E,] [A,,E,][A,,E,] | %12
 [A,,A,]2 [A,,E,]2 | [A,,A,]2 [A,,E,]>[A,,E,] | [A,,A,][A,,A,] [A,,A,]>[A,,E,] | %15
 [E,G,]>[E,G,] [E,,E,][E,,E,] |[M:3/8] [A,,E,]3 |[M:2/4] [A,,C]2 [A,,A,]>[A,,B,] | %18
 [A,,C]3 [A,,A,] | [A,,E,][A,,E,] [A,,E,][A,,E,] | [A,,A,]2 [A,,E,]2 | [A,,A,]2 [A,,E,]>[A,,E,] | %22
 [A,,A,][A,,A,] [A,,A,]>[A,,E,] | [E,G,]>[E,G,] [E,,E,][E,,E,] |[M:3/8] [A,,E,]3 |] %25
V:3
 x4 | x4 | z2 z E, | z2 z E, | x4 | x4 | z2 z E, | x4 | x4 | x4 | x4 | x4 | x4 | x4 | x4 | x4 | %16
[M:3/8] x3 |[M:2/4] x4 | x4 | x4 | x4 | x4 | x4 | x4 |[M:3/8] x3 |] %25

